X:113
T:Smith's Hornpipe
M:C|
L:1/8
K:D
A2|dcdA Bcde|gfed cBAG|FAdf gfed|.c2.A2.A2 (Bc)|dAeA fAgA|
gfed dcBA|dfeg faeg|.f2.d2.d2::fg|agfe dfga|.b2.e2.e2.d2|
cAeA fAed|.c2.A2.A2 Bc|dAeA fAgA|aAbe dcBA|dfeg faeg|.f2.d2.d2:|
